X:30
T:Mignonne, allons voir si la rose
T:Ode à Cassandre
R:Menuet
C:Jehan Chardavoine / Ronsard
H:1576
N:
Z: Eric Forgeot - http://anamnese.online.fr
M:4/4
L:1/8
Q:1/4=120
K:F
A2 A G A3 c | B3 A G2 F2 | G2 G F G3 F |
G2 B2 A2 D2 | G2 G F G3 F |1 G2 G2 A4 :|2 E2 E2 D4-|D8 ||
W:Mignonne, allons voir si la rose
W:Qui ce matin avoit desclose
W:Sa robe de pourpre au Soleil,
W:A point perdu ceste vesprée
W:Les plis de sa robe pourprée,
W:Et son teint au vostre pareil.
W:
W:Las ! voyez comme en peu d'espace,
W:Mignonne, elle a dessus la place
W:Las ! las ses beautez laissé cheoir !
W:Ô vrayment marastre Nature,
W:Puis qu'une telle fleur ne dure
W:Que du matin jusques au soir !
W:
W:Donc, si vous me croyez, mignonne,
W:Tandis que vostre âge fleuronne
W:En sa plus verte nouveauté,
W:Cueillez, cueillez vostre jeunesse :
W:Comme à ceste fleur la vieillesse
W:Fera ternir vostre beauté.


%%vskip 0.5cm
%%sep
%%text Baroque et classique

